docs/assets/icons/console.svg

<?xml version="1.0" encoding="UTF-8" standalone="no"?>
<svg
   id="mdi-console"
   viewBox="0 0 24 22"
   version="1.1"
   sodipodi:docname="console.svg"
   inkscape:version="1.4.3 (0d15f75042, 2025-12-25)"
   width="24"
   height="22"
   xmlns:inkscape="http://www.inkscape.org/namespaces/inkscape"
   xmlns:sodipodi="http://sodipodi.sourceforge.net/DTD/sodipodi-0.dtd"
   xmlns="http://www.w3.org/2000/svg"
   xmlns:svg="http://www.w3.org/2000/svg">
  <defs
     id="defs1">
    <filter
       style="color-interpolation-filters:sRGB"
       inkscape:label="Drop Shadow"
       id="filter3"
       x="-0.048"
       y="-0.053333335"
       width="1.1160001"
       height="1.1288888">
      <feFlood
         result="flood"
         in="SourceGraphic"
         flood-opacity="0.498039"
         flood-color="rgb(0,0,0)"
         id="feFlood2" />
      <feGaussianBlur
         result="blur"
         in="SourceGraphic"
         stdDeviation="0.400000"
         id="feGaussianBlur2" />
      <feOffset
         result="offset"
         in="blur"
         dx="0.400000"
         dy="0.400000"
         id="feOffset2" />
      <feComposite
         result="comp1"
         operator="in"
         in="flood"
         in2="offset"
         id="feComposite2" />
      <feComposite
         result="comp2"
         operator="over"
         in="SourceGraphic"
         in2="comp1"
         id="feComposite3" />
    </filter>
    <filter
       style="color-interpolation-filters:sRGB"
       inkscape:label="Drop Shadow"
       id="filter5"
       x="-0.077232502"
       y="-0.12"
       width="1.1866452"
       height="1.29">
      <feFlood
         result="flood"
         in="SourceGraphic"
         flood-opacity="0.498039"
         flood-color="rgb(0,0,0)"
         id="feFlood3" />
      <feGaussianBlur
         result="blur"
         in="SourceGraphic"
         stdDeviation="0.400000"
         id="feGaussianBlur3" />
      <feOffset
         result="offset"
         in="blur"
         dx="0.400000"
         dy="0.400000"
         id="feOffset3" />
      <feComposite
         result="comp1"
         operator="in"
         in="flood"
         in2="offset"
         id="feComposite4" />
      <feComposite
         result="comp2"
         operator="over"
         in="SourceGraphic"
         in2="comp1"
         id="feComposite5" />
    </filter>
  </defs>
  <sodipodi:namedview
     id="namedview1"
     pagecolor="#505050"
     bordercolor="#ffffff"
     borderopacity="1"
     inkscape:showpageshadow="0"
     inkscape:pageopacity="0"
     inkscape:pagecheckerboard="1"
     inkscape:deskcolor="#505050"
     inkscape:zoom="48.583333"
     inkscape:cx="11.989708"
     inkscape:cy="12"
     inkscape:window-width="2560"
     inkscape:window-height="1368"
     inkscape:window-x="0"
     inkscape:window-y="0"
     inkscape:window-maximized="1"
     inkscape:current-layer="mdi-console" />
  <g
     id="g1"
     transform="translate(0.00800436,-0.992796)">
    <path
       d="m 13.182618,17.945912 v -2.381246 h 5.953117 v 2.381246 H 13.182618 M 9.1106873,13.183419 4.3362881,8.4209263 h 3.3694637 l 3.9290562,3.9290567 c 0.464344,0.464343 0.464344,1.226342 0,1.690685 L 7.7295644,17.945912 H 4.3601007 Z"
       id="path1"
       sodipodi:nodetypes="ccccccccssccc"
       style="display:inline;fill:#0091eb;fill-opacity:1;stroke-width:1.19062" />
    <path
       d="M 21.516981,20.327158 V 6.0396798 H 2.4670098 V 20.327158 H 21.516981 m 0,-19.049971 c 1.315126,0 2.381247,1.0661202 2.381247,2.3812464 V 20.327158 c 0,1.315126 -1.066121,2.381247 -2.381247,2.381247 H 2.4670098 c -1.3151262,0 -2.38124652,-1.066121 -2.38124652,-2.381247 V 3.6584334 c 0,-1.3215918 1.07156082,-2.3812464 2.38124652,-2.3812464 H 21.516981"
       id="path2"
       sodipodi:nodetypes="ccccccsssssssc"
       style="display:inline;fill:#4cae4f;fill-opacity:1;stroke-width:1.19062" />
  </g>
</svg>

<?xml version="1.0" encoding="UTF-8"?>
<svg version="1.1" viewBox="0 0 24 22" xmlns="http://www.w3.org/2000/svg"><g transform="translate(.0080044 -.9928)" stroke-width="1.1906"><path d="m13.183 17.946v-2.3812h5.9531v2.3812h-5.9531m-4.0719-4.7625-4.7744-4.7625h3.3695l3.9291 3.9291c.46434.46434.46434 1.2263 0 1.6907l-3.9052 3.9052h-3.3695z" fill="#0091eb"/><path d="m21.517 20.327v-14.287h-19.05v14.287h19.05m0-19.05c1.3151 0 2.3812 1.0661 2.3812 2.3812v16.669c0 1.3151-1.0661 2.3812-2.3812 2.3812h-19.05c-1.3151 0-2.3812-1.0661-2.3812-2.3812v-16.669c0-1.3216 1.0716-2.3812 2.3812-2.3812h19.05" fill="#4cae4f"/></g></svg>
